icons/penis_alt_fill.svg

<svg width="48" height="48" viewBox="0 0 48 48" fill="none" xmlns="http://www.w3.org/2000/svg">
<path fill-rule="evenodd" clip-rule="evenodd" d="M8.999 6C8.999 6 5.9007 22.06 6.00245 25.0693C6.14682 29.3389 9.99957 42 9.99957 42H23V35.8293C21.8348 35.4175 21 34.3062 21 33V29C19.3431 29 18 27.6569 18 26V25H20V26C20 26.5523 20.4477 27 21 27V23H23V33C23 33.5523 23.4477 34 24 34C24.5523 34 25 33.5523 25 33V23H27V27C27.5523 27 28 26.5523 28 26V25H30V26C30 27.6569 28.6569 29 27 29V33C27 34.3062 26.1652 35.4175 25 35.8293V42H38.0004C38.0004 42 41.8532 29.3389 41.9975 25.0693C42.0993 22.06 39.001 6 39.001 6H8.999Z" fill="black"/>
</svg>

<svg
  xmlns="http://www.w3.org/2000/svg"
  width="24"
  height="24"
  viewBox="0 0 24 24"
  fill="none"
  stroke="currentColor"
  stroke-width="2"
  stroke-linecap="round"
  stroke-linejoin="round"
>
  <path
    fill-rule="evenodd"
    d="M8.999 6S5.901 22.06 6.002 25.07C6.147 29.338 10 42 10 42h13v-6.17A3 3 0 0 1 21 33v-4a3 3 0 0 1-3-3v-1h2v1a1 1 0 0 0 1 1v-4h2v10a1 1 0 1 0 2 0V23h2v4a1 1 0 0 0 1-1v-1h2v1a3 3 0 0 1-3 3v4a3 3 0 0 1-2 2.83V42h13s3.853-12.661 3.998-16.93C42.099 22.06 39 6 39 6z"
    clip-rule="evenodd"
  />
</svg>
